X: 1
T: Ha-Nokdim
O: Israel
R:
Z: John Chambers <jc:trillian.mit.edu>
M: 4/4
L: 1/8
K: Bm
P: Lento
dc || "Bm"d2e2 "A"cdcB | "Fm"A2"Bm"B4 dc | "Bm"d2"A"e2 "D"fgfe | "Em"e6 dc |
| "Bm"d2e2 "A"cdcB | "Fm"A2"Bm"B4 cd | "Em"e2B2 "A"BcBA | "Bm"B6 cd ||
%%text Slowly accelerate from here to the end ...
|: "Em"ez3 ez3 | efed e2cd | e2B2 "A"BcBA |1 "Bm"B2d4 cd :|2 "Bm"B6 A2 ||
|: "Bm"Bcd2 "A"cBA2 | "Bm"Bcd2 "A"cde2 | "Bm"Bcd2 "A"cBA2 | "Bm"B4 B2z2 :|
|: "Em"efg2 "D"fed2 | "Em"e2e2 "D"d2cd | "Em"efg2 "D"fed2 | "Em"e4 e2z2 :|
|: "Bm"Bcd2 "A"cBA2 | "Bm"Bcd2 "A"cde2 | "Bm"Bcd2 "A"cBA2 | "Bm"B4 B2z2 :|

%%sep 1 1 500

